X:009
T:Fishers Hornpipe TS.009
T:Egg Hp,aka TS.009
T:Lord Howe’s Hp,aka TS.009
T:Peckhover Walk Hp,aka TS.009
T:China Orange Hp,aka TS.009
M:C|
L:1/8
Q:1/2=90
S:Thomas Sands’ MS,1810,Lincolnshire
R:.hornpipe
O:England;Lincolnshire
Z:vmp.Ruairidh Greig, 2011
K:F
z2″rest added”|fcAc BdcB|AcAc BdcB|AFAF BGBG|AFAF GEDC|
fcAc BdcB|AcAc BdcB|Acfa bgfe|f2f2f2:|
|:z2″rest added”|gece gebg|afdf afc’g|gece geba|gfedc4|
dBGB dBfd|cAFA cAec|dBfd cBAG|F2F2F2:|]

